src/symbolic/status/bluetooth-disabled-symbolic.svg

<svg xmlns="http://www.w3.org/2000/svg" width="16" height="16"><path d="M8.5 0C5.45 0 3 2.68 3 6v4c0 3.32 2.45 6 5.5 6s5.5-2.68 5.5-6V6c0-3.32-2.45-6-5.5-6zM8 1.29l4.24 4.24L9.3 8l2.94 2.47L8 14.71V9.09l-2.43 2.04-.64-.76L7.75 8 4.93 5.63l.64-.76L8 6.91zm1 2.42v3.24l1.76-1.48zm0 5.34v3.24l1.76-1.76z" opacity=".3" fill="#444"/></svg>

<svg xmlns="http://www.w3.org/2000/svg" width="16" height="16" version="1.1">
 <path style="opacity:0.3;fill:#444444" d="M 8.5,0 C 5.45,0 3,2.68 3,6 V 10 C 3,13.32 5.45,16 8.5,16 11.55,16 14,13.32 14,10 V 6 C 14,2.68 11.55,0 8.5,0 Z M 8,1.29 12.24,5.53 9.3,8 12.24,10.47 8,14.71 V 9.09 L 5.57,11.13 4.93,10.37 7.75,8 4.93,5.63 5.57,4.87 8,6.91 Z M 9,3.71 V 6.95 L 10.76,5.47 Z M 9,9.05 V 12.29 L 10.76,10.53 Z"/>
</svg>
